svg/white/dht.svg

<svg width="32" height="32" viewBox="0 0 32 32" version="1.1" xmlns="http://www.w3.org/2000/svg" xmlns:xlink="http://www.w3.org/1999/xlink"><title>svg/white/dht</title><desc>Created with Sketch.</desc><g id="white/dht" stroke="none" stroke-width="1" fill="none" fill-rule="evenodd"><path d="M16,32 C7.163444,32 0,24.836556 0,16 C0,7.163444 7.163444,0 16,0 C24.836556,0 32,7.163444 32,16 C32,24.836556 24.836556,32 16,32 Z M16.0839286,4 C10.6141141,4.00393503 6.18010677,8.4355456 6.17321429,13.9053571 C6.17930978,14.4391758 6.23913528,14.9710245 6.35178571,15.4928571 C6.36284246,15.5437072 6.39889802,15.5854987 6.4475784,15.6038891 C6.49625878,15.6222795 6.55094048,15.6147665 6.59285714,15.5839286 C6.65983836,15.5352638 6.72959955,15.4905451 6.80178571,15.45 C7.13472172,15.2640009 7.50970282,15.1662599 7.89107143,15.1660714 C7.93673858,15.167329 7.98054322,15.1479508 8.01033129,15.1133135 C8.04011935,15.0786762 8.05272213,15.0324644 8.04464286,14.9875 C7.97889552,14.6340981 7.94483172,14.2755318 7.94285714,13.9160714 C7.94285714,9.42037494 11.5873392,5.77589286 16.0830357,5.77589286 C20.5787322,5.77589286 24.2232143,9.42037494 24.2232143,13.9160714 C24.2232143,18.4053571 18.4785714,24.1410714 16.4232143,26.1660714 C16.2349116,26.3512186 15.9329455,26.3512186 15.7446429,26.1660714 C15.1392857,25.5696429 14.2160714,24.6535714 13.2125,23.5410714 L13.1714286,23.5410714 C12.3849628,23.4637264 11.6128581,23.2786616 10.8767857,22.9910714 L10.7410714,22.9357143 C10.6760172,22.9052037 10.5984823,22.9244883 10.555301,22.9819194 C10.5121197,23.0393505 10.5151244,23.1191911 10.5625,23.1732143 C11.8352585,24.6944125 13.1858736,26.1487376 14.6089286,27.5303571 C15.4280049,28.3290392 16.7344951,28.3290392 17.5535714,27.5303571 C21.1732143,23.9535714 25.9946429,18.6642857 25.9946429,13.9053571 C25.9877504,8.4355456 21.553743,4.00393503 16.0839286,4 Z M20.2035714,14.9071429 L20.2035714,14.6982143 C20.2035714,14.6267857 20.2035714,14.5678571 20.2035714,14.5017857 C20.1963445,14.2447972 20.165863,13.988991 20.1125,13.7375 C20.0595636,13.4843314 19.9861067,13.235892 19.8928571,12.9946429 C19.7957054,12.7529914 19.6804989,12.5189968 19.5482143,12.2946429 C19.0054849,11.3835349 18.2034798,10.6548915 17.2446429,10.2017857 C16.7848392,9.98195606 16.2884482,9.84877799 15.7803571,9.80892857 C15.7232143,9.80892857 15.6625,9.80892857 15.6017857,9.80892857 L13.6375,9.80892857 C13.593101,9.81372948 13.550049,9.82706953 13.5107143,9.84821429 C13.4283524,9.89116525 13.3647588,9.96302608 13.3321429,10.05 C13.32469,10.0708495 13.3193069,10.0923818 13.3160714,10.1142857 C13.3160714,10.125 13.3160714,10.1375 13.3160714,10.1482143 C13.3156633,10.1541597 13.3156633,10.160126 13.3160714,10.1660714 L13.3160714,16.6571429 C13.3232231,16.8489925 13.3172569,17.0411067 13.2982143,17.2321429 C13.2664899,17.4595465 13.2065023,17.6821005 13.1196429,17.8946429 C13.0264169,18.1256808 12.8968002,18.340302 12.7357143,18.5303571 C12.5739017,18.720383 12.3820809,18.8826465 12.1678571,19.0107143 C11.9685027,19.1298285 11.7540981,19.2217161 11.5303571,19.2839286 C11.2822948,19.352691 11.0269239,19.391656 10.7696429,19.4 C11.5654445,19.9754536 12.4995297,20.3297405 13.4767857,20.4267857 C14.502456,20.5173143 15.5345511,20.3516392 16.4803571,19.9446429 C17.4352362,19.5411491 18.2889834,18.9313297 18.9803571,18.1589286 L18.9696429,18.15 C19.3194765,17.7572986 19.6073154,17.3134968 19.8232143,16.8339286 C20.0237275,16.3519178 20.1443558,15.8404536 20.1803571,15.3196429 C20.1928571,15.1839286 20.2035714,15.0464286 20.2035714,14.9071429 Z M21.9678571,14.4410714 C21.9571723,14.0807989 21.9141422,13.7222148 21.8392857,13.3696429 C21.7644403,13.021285 21.6611169,12.679661 21.5303571,12.3482143 C21.3989895,12.0182997 21.242581,11.6989158 21.0625,11.3928571 C20.3387144,10.1756236 19.2671238,9.20292033 17.9857143,8.6 C17.3308885,8.28926409 16.6244943,8.10161868 15.9017857,8.04642857 C15.8107143,8.04642857 15.7232143,8.04642857 15.6232143,8.03571429 L13.625,8.03571429 C13.5607143,8.03571429 13.4946429,8.03571429 13.4303571,8.05 C13.1685682,8.08073565 12.9148172,8.16007068 12.6821429,8.28392857 C12.2131292,8.53473666 11.8541482,8.95100191 11.675,9.45178571 C11.6304593,9.57522724 11.5975776,9.70256902 11.5767857,9.83214286 C11.5660714,9.89642857 11.5589286,9.9625 11.5535714,10.0267857 C11.5535714,10.0589286 11.5535714,10.0910714 11.5535714,10.125 L11.5535714,16.6571429 C11.5536635,16.7730107 11.5459076,16.8887518 11.5303571,17.0035714 C11.5203501,17.0817413 11.5011704,17.1584603 11.4732143,17.2321429 C11.450978,17.2871876 11.4202476,17.3384049 11.3821429,17.3839286 C11.2902462,17.4827943 11.1708192,17.5518381 11.0392857,17.5821429 C10.8423021,17.6324554 10.6380753,17.6481652 10.4357143,17.6285714 C10.2006303,17.6087535 9.96868567,17.5614057 9.74464286,17.4875 C9.28003799,17.3391198 8.85343561,17.091081 8.49464286,16.7607143 C8.17694341,16.4665413 7.69292086,16.4457993 7.35121967,16.7117146 C7.00951848,16.9776299 6.91073377,17.4519185 7.11785714,17.8321429 C7.74188179,18.9719472 8.5984911,19.9678772 9.63214286,20.7553571 C10.1651318,21.1527381 10.7488791,21.4770421 11.3678571,21.7196429 C11.9894235,21.9622667 12.6413329,22.1184846 13.3053571,22.1839286 C14.6229834,22.3060085 15.9502902,22.0985976 17.1678571,21.5803571 C18.3809562,21.0786341 19.4566446,20.2943672 20.3053571,19.2928571 L20.3160714,19.3017857 C20.784039,18.7722726 21.1682452,18.1742839 21.4553571,17.5285714 C21.7279234,16.8713008 21.8919625,16.1741346 21.9410714,15.4642857 C21.9553571,15.2857143 21.9642857,15.125 21.9696429,14.9553571 L21.9696429,14.7035714 C21.9767857,14.6303571 21.9714286,14.5285714 21.9696429,14.4410714 L21.9678571,14.4410714 Z" id="Combined-Shape" fill="#FFF" fill-rule="nonzero"/></g></svg>

<svg width="32" height="32" viewBox="0 0 32 32" xmlns="http://www.w3.org/2000/svg"><path d="M16 32C7.163 32 0 24.837 0 16S7.163 0 16 0s16 7.163 16 16-7.163 16-16 16zm.084-28c-5.47.004-9.904 4.436-9.91 9.905.005.534.065 1.066.178 1.588a.154.154 0 0 0 .24.09 2.236 2.236 0 0 1 1.298-.418.152.152 0 0 0 .155-.177 6.04 6.04 0 0 1-.102-1.072 8.14 8.14 0 0 1 16.28 0c0 4.49-5.744 10.225-7.8 12.25a.484.484 0 0 1-.678 0 60.771 60.771 0 0 1-2.532-2.625h-.042a8.625 8.625 0 0 1-2.294-.55l-.136-.055a.152.152 0 0 0-.178.237 57.5 57.5 0 0 0 4.046 4.357 2.109 2.109 0 0 0 2.945 0c3.62-3.576 8.44-8.866 8.44-13.625-.006-5.47-4.44-9.901-9.91-9.905zm4.12 10.907v-.405a4.259 4.259 0 0 0-.091-.764 4.766 4.766 0 0 0-.22-.743 5.19 5.19 0 0 0-.345-.7 5.334 5.334 0 0 0-2.303-2.093 4.146 4.146 0 0 0-1.465-.393h-2.143a.377.377 0 0 0-.321.305v.034a.13.13 0 0 0 0 .018v6.491c.007.192.001.384-.018.575-.032.228-.091.45-.178.663a2.287 2.287 0 0 1-.952 1.116c-.2.119-.414.21-.638.273a3.241 3.241 0 0 1-.76.116c.795.575 1.73.93 2.707 1.027a6.216 6.216 0 0 0 3.003-.482 7.025 7.025 0 0 0 2.5-1.786l-.01-.009c.35-.393.637-.837.853-1.316.2-.482.321-.994.357-1.514a4.49 4.49 0 0 0 .024-.413zm1.764-.466a6.018 6.018 0 0 0-.129-1.071 6.509 6.509 0 0 0-.776-1.977A7.093 7.093 0 0 0 17.986 8.6a5.91 5.91 0 0 0-2.084-.554c-.091 0-.179 0-.279-.01h-1.998c-.064 0-.13 0-.195.014-.261.03-.515.11-.748.234a2.143 2.143 0 0 0-1.128 1.743v6.63c0 .116-.008.232-.024.347-.01.078-.029.154-.057.228a.568.568 0 0 1-.09.152.675.675 0 0 1-.344.198c-.197.05-.4.066-.603.047a3.35 3.35 0 0 1-1.941-.868.884.884 0 0 0-1.377 1.071 9.273 9.273 0 0 0 2.514 2.923 7.455 7.455 0 0 0 1.736.965 7.296 7.296 0 0 0 1.937.464 7.982 7.982 0 0 0 3.863-.604 8.241 8.241 0 0 0 3.137-2.287l.011.009a6.929 6.929 0 0 0 1.14-1.773 6.573 6.573 0 0 0 .485-2.065c.014-.178.023-.339.029-.509v-.251c.007-.074.001-.175 0-.263h-.002z" fill="#FFF"/></svg>
